X:1
%
%%scale 0.85
%
T:Maria durch ein Dornwald ging
C:Anonym, 19. Jh.
S:Zupfgeigenhansel (1908)
L:1/4
M:C
K:GM
%
D | "g"G>A B "D"d | "g"B "D"A/G/ "D"D2 | "g"BB/B/ "c"c2 | "D"d2 z
w:1.~Ma-ri-a durch ein Dorn-wald* ging, Ky-rie e-lei-son,
B/c/ | "B"d>cd "F"e/d/ | "F"c>Bc "B"d/c/ | "g"B>AB
w:Ma - ri-a durch ein* Dorn-wald ging, der* hat in siebn 
"c"c/B/ | "D"A>G "D"A2 | "g"G>AB "D"d | "g"B/"D"A/ "g"G2 |]
w:Jahrn kein Laub ge-tragn. Je-sus und Ma-ri - a.
%
W:
W:2. Was trug Maria unter ihrem Herzen?
W:Ein kleines Kindlein ohne Schmerzen, das trug Maria unter ihrem Herzen.
W:
W:3. Da haben die Dornen Rosen getragen,
W:als das Kindlein durch den Wald getragen, Da haben die Dornen Rosen getragen.